dist/icons/svgs/steering-wheel-outline.svg

<svg xmlns="http://www.w3.org/2000/svg" width="24" height="24" fill="currentcolor" class="icon-steering-wheel-outline" viewBox="0 0 24 24">
  <path d="M11.0625 16.4141C11.0234 16.4141 11.0234 16.375 10.9844 16.375L8.09375 12.625H3.875C4.1875 16.5312 7.19531 19.6562 11.0625 20.0859V16.4141ZM12.9375 16.4141V20.0859C16.7656 19.6562 19.7734 16.5312 20.0859 12.625H15.8672L12.9766 16.375C12.9375 16.375 12.9375 16.4141 12.9375 16.4141ZM15.75 10.75H20.0078C19.4219 6.88281 16.0625 3.875 12 3.875C7.9375 3.875 4.53906 6.88281 3.95312 10.75H8.25L8.52344 10.2031C8.71875 9.77344 9.14844 9.5 9.61719 9.5H14.3438C14.8125 9.5 15.2422 9.77344 15.4375 10.2031L15.75 10.75ZM12 22C8.40625 22 5.125 20.125 3.32812 17C1.53125 13.9141 1.53125 10.125 3.32812 7C5.125 3.91406 8.40625 2 12 2C15.5547 2 18.8359 3.91406 20.6328 7C22.4297 10.125 22.4297 13.9141 20.6328 17C18.8359 20.125 15.5547 22 12 22Z"/>
</svg>

<svg xmlns="http://www.w3.org/2000/svg" width="24" height="24" fill="currentColor" class="icon-steering-wheel-outline" viewBox="0 0 24 24">
  <path d="M11.063 16.414c-.04 0-.04-.039-.079-.039l-2.89-3.75H3.875c.313 3.906 3.32 7.031 7.188 7.46zm1.874 0v3.672c3.829-.43 6.836-3.555 7.149-7.461h-4.219l-2.89 3.75c-.04 0-.04.04-.04.04m2.813-5.664h4.258C19.422 6.883 16.063 3.875 12 3.875S4.54 6.883 3.953 10.75H8.25l.273-.547c.196-.43.625-.703 1.094-.703h4.727c.469 0 .898.273 1.094.703zM12 22c-3.594 0-6.875-1.875-8.672-5-1.797-3.086-1.797-6.875 0-10C5.125 3.914 8.406 2 12 2c3.555 0 6.836 1.914 8.633 5 1.797 3.125 1.797 6.914 0 10A9.93 9.93 0 0 1 12 22"/>
</svg>
